assets/img/icons/duotone-icons/Code/Github.svg

<?xml version="1.0" encoding="UTF-8"?>
<svg width="24px" height="24px" viewBox="0 0 24 24" version="1.1" xmlns="http://www.w3.org/2000/svg" xmlns:xlink="http://www.w3.org/1999/xlink">
    <!-- Generator: Sketch 52.2 (67145) - http://www.bohemiancoding.com/sketch -->
    <title>Stockholm-icons / Code / Github</title>
    <desc>Created with Sketch.</desc>
    <g id="Stockholm-icons-/-Code-/-Github" stroke="none" stroke-width="1" fill="none" fill-rule="evenodd">
        <rect id="Rectangle-5" x="0" y="0" width="24" height="24"></rect>
        <path d="M16.5428932,17.4571068 L11,11.9142136 L11,4 C11,3.44771525 11.4477153,3 12,3 C12.5522847,3 13,3.44771525 13,4 L13,11.0857864 L17.9571068,16.0428932 L20.1464466,13.8535534 C20.3417088,13.6582912 20.6582912,13.6582912 20.8535534,13.8535534 C20.9473216,13.9473216 21,14.0744985 21,14.2071068 L21,19.5 C21,19.7761424 20.7761424,20 20.5,20 L15.2071068,20 C14.9309644,20 14.7071068,19.7761424 14.7071068,19.5 C14.7071068,19.3673918 14.7597852,19.2402148 14.8535534,19.1464466 L16.5428932,17.4571068 Z" id="Combined-Shape" fill="#335EEA"></path>
        <path d="M7.24478854,17.1447885 L9.2464466,19.1464466 C9.34021479,19.2402148 9.39289321,19.3673918 9.39289321,19.5 C9.39289321,19.7761424 9.16903559,20 8.89289321,20 L3.52893218,20 C3.25278981,20 3.02893218,19.7761424 3.02893218,19.5 L3.02893218,14.136039 C3.02893218,14.0034307 3.0816106,13.8762538 3.17537879,13.7824856 C3.37064094,13.5872234 3.68722343,13.5872234 3.88248557,13.7824856 L5.82567301,15.725673 L8.85405776,13.1631936 L10.1459422,14.6899662 L7.24478854,17.1447885 Z" id="Combined-Shape" fill="#335EEA" opacity="0.3"></path>
    </g>
</svg>

<svg width="24" height="24" viewBox="0 0 24 24" xmlns="http://www.w3.org/2000/svg"><g fill="none" fill-rule="evenodd"><path d="M0 0h24v24H0z"/><path d="M16.543 17.457L11 11.914V4a1 1 0 012 0v7.086l4.957 4.957 2.19-2.19a.5.5 0 01.853.354V19.5a.5.5 0 01-.5.5h-5.293a.5.5 0 01-.353-.854l1.689-1.689z" fill="#335EEA"/><path d="M7.245 17.145l2.001 2.001a.5.5 0 01-.353.854H3.529a.5.5 0 01-.5-.5v-5.364a.5.5 0 01.853-.354l1.944 1.944 3.028-2.563 1.292 1.527-2.901 2.455z" fill="#335EEA" opacity=".3"/></g></svg>
